X: 33106
T: Prince Of Wales, The
R: reel
M: 4/4
K: Dmajor
A|F2ED D3E|FAAD BAFd|F2 ED D3F|EFdF E3d|
F2 ED D3E|FAAD BAFd|F3A BAdB|AFGE FD D2||
A|FDAD BDAG|FDAD BAFd|FDAD BDAF|EFdF E3d|
FDAD BDAG|FDAD BAFA|F3A BAdB|AFGE FD D2||

